X:11868
T:no name
R:reel
Z:id:hn-reel-525
M:C|
K:Amix
eA~A2 cABA|eAAf gedg|eAAB cAdc|BdGA BcdB:|
|:edef gagf|edef gedg|1 edef gagf|edgd BAAg:|2 edef gaba|gedB Agfg||


